X:24
T:Paidin O'Raifearlaigh
W:double jig, CTT, side 1, track 2, tune 2, twice
W:From: Music for the Sets - the blue book
M:6/8
L:1/8
K:D
P:- A -
"D" dff "A" cee | "G" def "A7" gfe | "D" dff "A" cee | "E9" dfe "A" dBA |
"D" dff "A" cee | "G" def g3 | "D" afd "A7" gec | [1 "E9" dfe "A" dBA :| [2 "E9" dfe "A" dcB ||
P:- B -
|: "D" AGA "Bm" B2 f | "Em" gfe "Bm" edB | "D" A3 "Bm" BAB | "E9" dfe "A" dcB |
 "D" AGA "G" BGB | "A7" efe efg | "D" f/g/af "G" gfe | [1 "E9" dfe "A" dcB :| [2 "E9" dfe "A" dBA ||
P:- C -
|: "D" fAA "A" eAA | "Bm" fef "A7" gfe | "D" fAA "A" eAA | "E9" dfe "A" dBA | "D" fAA "A" eAA | "Bm" f3 "G" g3 | "D" agd "A7" gec | "E9" dfe "A" dBA :|

